X:1778
T:McElligott's Fancy
M:C|
L:1/8
N:"collected by McElligott"
B:O'Neill's 1778
R:Hornpipe
Z:"Transcribed by Bob Safranek, rjs@gsp.org"
K:D
   F>G | A>FA>d B>GB>d | A>FA>d f2 e>d | c>eg>f e>dc>d | (3efe (3dcB A2 F>G |
         A>GA>d B>GB>d | A>FA>d f2 e>d | c>eg>f e>dc>e |   d2    f2  d2    :|
|: e>f | g>fg>e c>AB>c | d>cd>e f2 e>f | g>fg>e c>AB>c | (3dfe (3dcB A2 F>G |
         A>FA>d B>GB>d | A>FA>d f2 e>d | c>eg>f e>dc>e |   d2    f2  d2    :|


